X: 20681
T: HOLLIS'S HORNPIPE
C:
%R: hornpipe, reel
B: Elias Howe "The Musician's Companion" 1843 p.68 #1
S: http://imslp.org/wiki/The_Musician's_Companion_(Howe,_Elias)
Z: 2015 John Chambers <jc:trillian.mit.edu>
M: C|
L: 1/8
K: C
% - - - - - - - - - - - - - - - - - - - - - - - - -
ce |\
gefd cedc | BcdB G2GF | EGce fedc | BcdB G2ce |\
gefd cedc | BcdB G2GF | EGce fdcB | c2c2 c2 :|
|: Bc |\
d>GG>G d>Ge>G | d>GG>G G2ce | fedc cBAG | A2A2 A2GF |\
EGcB Acdc | BGAB cdef | geaf edcB | c2c2 c2 :|
% - - - - - - - - - - - - - - - - - - - - - - - - -

%%sep 1 1 500

